svgs/light/clone.svg

<svg xmlns="http://www.w3.org/2000/svg" viewBox="0 0 512 512"><!--! Font Awesome Pro 6.4.2 by @fontawesome - https://fontawesome.com License - https://fontawesome.com/license (Commercial License) Copyright 2023 Fonticons, Inc. --><path d="M64 480H288c17.7 0 32-14.3 32-32V384h32v64c0 35.3-28.7 64-64 64H64c-35.3 0-64-28.7-64-64V224c0-35.3 28.7-64 64-64h64v32H64c-17.7 0-32 14.3-32 32V448c0 17.7 14.3 32 32 32zM224 320H448c17.7 0 32-14.3 32-32V64c0-17.7-14.3-32-32-32H224c-17.7 0-32 14.3-32 32V288c0 17.7 14.3 32 32 32zm-64-32V64c0-35.3 28.7-64 64-64H448c35.3 0 64 28.7 64 64V288c0 35.3-28.7 64-64 64H224c-35.3 0-64-28.7-64-64z"/></svg>

<svg xmlns="http://www.w3.org/2000/svg" viewBox="0 0 512 512"><!--! Font Awesome Pro 6.1.1 by @fontawesome - https://fontawesome.com License - https://fontawesome.com/license (Commercial License) Copyright 2022 Fonticons, Inc. --><path d="M64 480H288C305.7 480 320 465.7 320 448V400C320 391.2 327.2 384 336 384C344.8 384 352 391.2 352 400V448C352 483.3 323.3 512 288 512H64C28.65 512 0 483.3 0 448V224C0 188.7 28.65 160 64 160H112C120.8 160 128 167.2 128 176C128 184.8 120.8 192 112 192H64C46.33 192 32 206.3 32 224V448C32 465.7 46.33 480 64 480zM160 64C160 28.65 188.7 0 224 0H448C483.3 0 512 28.65 512 64V288C512 323.3 483.3 352 448 352H224C188.7 352 160 323.3 160 288V64zM224 320H448C465.7 320 480 305.7 480 288V64C480 46.33 465.7 32 448 32H224C206.3 32 192 46.33 192 64V288C192 305.7 206.3 320 224 320z"/></svg>
